svg/blobs-icons/no-decorations/backpack.svg

<svg xmlns="http://www.w3.org/2000/svg" xmlns:xlink="http://www.w3.org/1999/xlink" preserveAspectRatio="xMidYMid" width="178" height="218" viewBox="0 0 178 218"><defs><style>.cls-3{fill:#0cb04a}.cls-5{fill:#010101;opacity:.35}.cls-7{fill:#142a3b}.cls-9{fill:#fbb713}</style></defs><g id="group-158svg"><path d="M11.946 135.675s11.429.0 11.429.0.0 59.733.0 59.733-11.429.0-11.429.0C5.374 195.408-.002 187.457-.002 177.737V153.348c0-9.721 5.376-17.673 11.948-17.673z" id="path-1" class="cls-3" fill-rule="evenodd"/><path d="M165.747 135.675s-11.429.0-11.429.0.0 59.733.0 59.733 11.429.0 11.429.0c6.571.0 11.948-7.95099999999999 11.948-17.671V153.348c0-9.721-5.37699999999998-17.673-11.948-17.673z" id="path-2" class="cls-3" fill-rule="evenodd"/><path d="M174.451 186.704s-7.077.0-7.077.0.0-51.029.0-51.029-13.056.0-13.056.0.0 59.733.0 59.733 11.429.0 11.429.0C170.165 195.408 174 191.772 176.066 186.461 175.533 186.57 175.004 186.704 174.451 186.704z" id="path-3" class="cls-5" fill-rule="evenodd"/><path d="M3.604 186.704s7.077.0 7.077.0.0-51.029.0-51.029 13.057.0 13.057.0.0 59.733.0 59.733-11.429.0-11.429.0C7.89 195.408 4.056 191.772 1.99 186.461 2.523 186.57 3.052 186.704 3.604 186.704z" id="path-4" class="cls-5" fill-rule="evenodd"/><path d="M160.597 216.881s-144.351.0-144.351.0.0-186.346.0-186.346 144.351.0 144.351.0.0 186.346.0 186.346z" id="path-5" class="cls-7" fill-rule="evenodd"/><path d="M128.595 133.374C132.028 137.703 134.099 143.155 134.099 149.077v20.962c0 13.953-11.415 25.369-25.368 25.369H59.407C57.048 195.408 54.772 195.057 52.601 194.448 57.257 200.318 64.433 204.113 72.463 204.113h49.325c13.953.0 25.368-11.415 25.368-25.369V157.783c0-11.595-7.892-21.413-18.561-24.409z" id="path-6" class="cls-5" fill-rule="evenodd"/><path d="M132.624 195.408s-88.405.0-88.405.0C41.013 195.408 38.39 192.785 38.39 189.58V129.537c0-3.206 2.623-5.828 5.829-5.828h88.405c3.20500000000001.0 5.828 2.622 5.828 5.828V189.58C138.452 192.785 135.829 195.408 132.624 195.408z" id="path-7" class="cls-9" fill-rule="evenodd"/><path d="M123.202 177.219s-70.309.0-70.309.0.0-11.678.0-11.678 70.309.0 70.309.0.0 11.678.0 11.678z" id="path-8" class="cls-7" fill-rule="evenodd"/><path d="M127.008 38.398s-77.922.0-77.922.0S49.542 34.378 49.542 34.378C51.757 14.781 68.31.002 88.047.002c19.738.0 36.29 14.779 38.505 34.376L127.008 38.398zM57.443 31.169s61.208.0 61.208.0C115.232 17.272 102.72 7.232 88.047 7.232S60.862 17.272 57.443 31.169z" id="path-9" class="cls-7" fill-rule="evenodd"/><path d="M128.38 95.77s-10.812.0-10.812.0.0-33.659.0-33.659 10.812.0 10.812.0.0 33.659.0 33.659z" id="path-10" class="cls-5" fill-rule="evenodd"/><path d="M67.45 95.77s-10.813.0-10.813.0.0-33.659.0-33.659 10.813.0 10.813.0.0 33.659.0 33.659z" id="path-11" class="cls-5" fill-rule="evenodd"/><path d="M16.246 51.53c0 16.428 13.439 29.867 29.866 29.867h84.62c16.426.0 29.865-13.439 29.865-29.867V30.535s-144.351.0-144.351.0.0 20.995.0 20.995z" id="path-12" class="cls-3" fill-rule="evenodd"/><path d="M160.597 51.53c0 16.428-13.439 29.867-29.865 29.867H46.112C40.114 81.397 34.525 79.59 29.832 76.515 35.178 84.674 44.388 90.102 54.816 90.102h84.62c8.25.0 15.743-3.393 21.161-8.85000000000001V51.53z" id="path-13" class="cls-5" fill-rule="evenodd"/><path d="M60.981 100.122s-8.088.0-8.088.0.0-33.659.0-33.659 8.088.0 8.088.0.0 33.659.0 33.659z" id="path-14" class="cls-9" fill-rule="evenodd"/><path d="M120.713 100.122s-8.089.0-8.089.0.0-33.659.0-33.659 8.089.0 8.089.0.0 33.659.0 33.659z" id="path-15" class="cls-9" fill-rule="evenodd"/></g></svg>

<svg xmlns="http://www.w3.org/2000/svg" xmlns:xlink="http://www.w3.org/1999/xlink" preserveAspectRatio="xMidYMid" width="178" height="218" viewBox="0 0 178 218">
  <defs>
    <style>

      .cls-3 {
        fill: #0cb04a;
      }

      .cls-5 {
        fill: #010101;
        opacity: 0.35;
      }

      .cls-7 {
        fill: #142a3b;
      }

      .cls-9 {
        fill: #fbb713;
      }
    </style>
  </defs>
  <g id="group-158svg">
    <path d="M11.946,135.675 C11.946,135.675 23.375,135.675 23.375,135.675 C23.375,135.675 23.375,195.408 23.375,195.408 C23.375,195.408 11.946,195.408 11.946,195.408 C5.374,195.408 -0.002,187.457 -0.002,177.737 C-0.002,177.737 -0.002,153.348 -0.002,153.348 C-0.002,143.627 5.374,135.675 11.946,135.675 Z" id="path-1" class="cls-3" fill-rule="evenodd"/>
    <path d="M165.747,135.675 C165.747,135.675 154.318,135.675 154.318,135.675 C154.318,135.675 154.318,195.408 154.318,195.408 C154.318,195.408 165.747,195.408 165.747,195.408 C172.318,195.408 177.695,187.457 177.695,177.737 C177.695,177.737 177.695,153.348 177.695,153.348 C177.695,143.627 172.318,135.675 165.747,135.675 Z" id="path-2" class="cls-3" fill-rule="evenodd"/>
    <path d="M174.451,186.704 C174.451,186.704 167.374,186.704 167.374,186.704 C167.374,186.704 167.374,135.675 167.374,135.675 C167.374,135.675 154.318,135.675 154.318,135.675 C154.318,135.675 154.318,195.408 154.318,195.408 C154.318,195.408 165.747,195.408 165.747,195.408 C170.165,195.408 174.000,191.772 176.066,186.461 C175.533,186.570 175.004,186.704 174.451,186.704 Z" id="path-3" class="cls-5" fill-rule="evenodd"/>
    <path d="M3.604,186.704 C3.604,186.704 10.681,186.704 10.681,186.704 C10.681,186.704 10.681,135.675 10.681,135.675 C10.681,135.675 23.738,135.675 23.738,135.675 C23.738,135.675 23.738,195.408 23.738,195.408 C23.738,195.408 12.309,195.408 12.309,195.408 C7.890,195.408 4.056,191.772 1.990,186.461 C2.523,186.570 3.052,186.704 3.604,186.704 Z" id="path-4" class="cls-5" fill-rule="evenodd"/>
    <path d="M160.597,216.881 C160.597,216.881 16.246,216.881 16.246,216.881 C16.246,216.881 16.246,30.535 16.246,30.535 C16.246,30.535 160.597,30.535 160.597,30.535 C160.597,30.535 160.597,216.881 160.597,216.881 Z" id="path-5" class="cls-7" fill-rule="evenodd"/>
    <path d="M128.595,133.374 C132.028,137.703 134.099,143.155 134.099,149.077 C134.099,149.077 134.099,170.039 134.099,170.039 C134.099,183.992 122.684,195.408 108.731,195.408 C108.731,195.408 59.407,195.408 59.407,195.408 C57.048,195.408 54.772,195.057 52.601,194.448 C57.257,200.318 64.433,204.113 72.463,204.113 C72.463,204.113 121.788,204.113 121.788,204.113 C135.741,204.113 147.156,192.698 147.156,178.744 C147.156,178.744 147.156,157.783 147.156,157.783 C147.156,146.188 139.264,136.370 128.595,133.374 Z" id="path-6" class="cls-5" fill-rule="evenodd"/>
    <path d="M132.624,195.408 C132.624,195.408 44.219,195.408 44.219,195.408 C41.013,195.408 38.390,192.785 38.390,189.580 C38.390,189.580 38.390,129.537 38.390,129.537 C38.390,126.331 41.013,123.709 44.219,123.709 C44.219,123.709 132.624,123.709 132.624,123.709 C135.829,123.709 138.452,126.331 138.452,129.537 C138.452,129.537 138.452,189.580 138.452,189.580 C138.452,192.785 135.829,195.408 132.624,195.408 Z" id="path-7" class="cls-9" fill-rule="evenodd"/>
    <path d="M123.202,177.219 C123.202,177.219 52.893,177.219 52.893,177.219 C52.893,177.219 52.893,165.541 52.893,165.541 C52.893,165.541 123.202,165.541 123.202,165.541 C123.202,165.541 123.202,177.219 123.202,177.219 Z" id="path-8" class="cls-7" fill-rule="evenodd"/>
    <path d="M127.008,38.398 C127.008,38.398 49.086,38.398 49.086,38.398 C49.086,38.398 49.542,34.378 49.542,34.378 C51.757,14.781 68.310,0.002 88.047,0.002 C107.785,0.002 124.337,14.781 126.552,34.378 C126.552,34.378 127.008,38.398 127.008,38.398 ZM57.443,31.169 C57.443,31.169 118.651,31.169 118.651,31.169 C115.232,17.272 102.720,7.232 88.047,7.232 C73.374,7.232 60.862,17.272 57.443,31.169 Z" id="path-9" class="cls-7" fill-rule="evenodd"/>
    <path d="M128.380,95.770 C128.380,95.770 117.568,95.770 117.568,95.770 C117.568,95.770 117.568,62.111 117.568,62.111 C117.568,62.111 128.380,62.111 128.380,62.111 C128.380,62.111 128.380,95.770 128.380,95.770 Z" id="path-10" class="cls-5" fill-rule="evenodd"/>
    <path d="M67.450,95.770 C67.450,95.770 56.637,95.770 56.637,95.770 C56.637,95.770 56.637,62.111 56.637,62.111 C56.637,62.111 67.450,62.111 67.450,62.111 C67.450,62.111 67.450,95.770 67.450,95.770 Z" id="path-11" class="cls-5" fill-rule="evenodd"/>
    <path d="M16.246,51.530 C16.246,67.958 29.685,81.397 46.112,81.397 C46.112,81.397 130.732,81.397 130.732,81.397 C147.158,81.397 160.597,67.958 160.597,51.530 C160.597,51.530 160.597,30.535 160.597,30.535 C160.597,30.535 16.246,30.535 16.246,30.535 C16.246,30.535 16.246,51.530 16.246,51.530 Z" id="path-12" class="cls-3" fill-rule="evenodd"/>
    <path d="M160.597,51.530 C160.597,67.958 147.158,81.397 130.732,81.397 C130.732,81.397 46.112,81.397 46.112,81.397 C40.114,81.397 34.525,79.590 29.832,76.515 C35.178,84.674 44.388,90.102 54.816,90.102 C54.816,90.102 139.436,90.102 139.436,90.102 C147.686,90.102 155.179,86.709 160.597,81.252 C160.597,81.252 160.597,51.530 160.597,51.530 Z" id="path-13" class="cls-5" fill-rule="evenodd"/>
    <path d="M60.981,100.122 C60.981,100.122 52.893,100.122 52.893,100.122 C52.893,100.122 52.893,66.463 52.893,66.463 C52.893,66.463 60.981,66.463 60.981,66.463 C60.981,66.463 60.981,100.122 60.981,100.122 Z" id="path-14" class="cls-9" fill-rule="evenodd"/>
    <path d="M120.713,100.122 C120.713,100.122 112.624,100.122 112.624,100.122 C112.624,100.122 112.624,66.463 112.624,66.463 C112.624,66.463 120.713,66.463 120.713,66.463 C120.713,66.463 120.713,100.122 120.713,100.122 Z" id="path-15" class="cls-9" fill-rule="evenodd"/>
  </g>
</svg>
